; generated by PrusaSlicer 2.3.0+ on 2021-02-21 at 19:06:08 UTC

; 

; external perimeters extrusion width = 0.45mm
; perimeters extrusion width = 0.45mm
; infill extrusion width = 0.45mm
; solid infill extrusion width = 0.45mm
; top infill extrusion width = 0.40mm
; first layer extrusion width = 0.42mm

M73 P0 R211
M73 Q0 S212
M201 X1000 Y1000 Z200 E5000 ; sets maximum accelerations, mm/sec^2
M203 X200 Y200 Z12 E120 ; sets maximum feedrates, mm/sec
M204 P1250 R1250 T1250 ; sets acceleration (P, T) and retract acceleration (R), mm/sec^2
M205 X8.00 Y8.00 Z0.40 E4.50 ; sets the jerk limits, mm/sec
M205 S0 T0 ; sets the minimum extruding and travel feed rate, mm/sec
M107
;TYPE:Custom
M862.3 P "MK3S" ; printer model check
M862.1 P0.4 ; nozzle diameter check
M115 U3.9.3 ; tell printer latest fw version
G90 ; use absolute coordinates
M83 ; extruder relative mode
M104 S240 ; set extruder temp
M140 S85 ; set bed temp
M190 S85 ; wait for bed temp
M109 S240 ; wait for extruder temp
G28 W ; home all without mesh bed level
G80 ; mesh bed leveling
G1 Y-3.0 F1000.0 ; go outside print area
G92 E0.0
G1 X60.0 E9.0 F1000.0 ; intro line
G1 X100.0 E12.5 F1000.0 ; intro line
G92 E0.0
M221 S95

; Don't change E values below. Excessive value can damage the printer.
M907 E430 ; set extruder motor current
G21 ; set units to millimeters
G90 ; use absolute coordinates
M83 ; use relative distances for extrusion
M900 K0.08 ; Filament gcode LA 1.5
M900 K45 ; Filament gcode LA 1.0
;LAYER_CHANGE
;Z:0.2
;HEIGHT:0.2
;BEFORE_LAYER_CHANGE
G92 E0.0
;0.2


G1 E-1.40000 F2100.000
G1 Z0.200 F10800.000
;AFTER_LAYER_CHANGE
;0.2
G1 Z0.400
G1 X2.749 Y74.601
G1 Z0.200
G1 E1.40000 F2100.000
M204 S1000
;TYPE:Skirt
;WIDTH:0.42
G1 F1200.000
G1 X3.716 Y73.574 E0.04424
G1 X4.700 Y72.916 E0.03712
G1 X5.803 Y72.474 E0.03727
G1 X93.128 Y49.088 E2.83449
G1 X94.175 Y48.962 E0.03306
G1 X154.111 Y48.962 E1.87927
G1 X155.388 Y49.137 E0.04039
G1 X242.500 Y72.479 E2.82769
G1 X243.574 Y72.908 E0.03629
G1 X244.474 Y73.501 E0.03379
G1 X245.578 Y74.657 E0.05013
G1 X246.172 Y75.708 E0.03784
G1 X246.543 Y76.916 E0.03962
G1 X246.639 Y78.176 E0.03961
G1 X246.472 Y79.364 E0.03762
G1 X227.263 Y151.051 E2.32698
G1 X226.837 Y152.115 E0.03593
G1 X226.262 Y152.990 E0.03284
G1 X225.224 Y154.021 E0.04586
G1 X223.840 Y154.790 E0.04966
G1 X222.809 Y155.090 E0.03366
G1 X221.652 Y155.184 E0.03641
G1 X26.639 Y155.184 E6.11449
M73 P0 R210
M73 Q0 S211
G1 X25.430 Y155.081 E0.03803
G1 X24.197 Y154.691 E0.04057
G1 X23.100 Y154.049 E0.03985
G1 X22.121 Y153.119 E0.04234
G1 X21.460 Y152.132 E0.03724
G1 X21.018 Y151.028 E0.03727
G1 X1.803 Y79.308 E2.32806
G1 X1.654 Y77.936 E0.04326
G1 X1.746 Y76.909 E0.03236
G1 X2.047 Y75.890 E0.03330
G1 X2.720 Y74.654 E0.04412
; printing object 1.stl id:0 copy 0
;WIPE_START
G1 F8640.000
G1 X3.716 Y73.574 E-0.33921
G1 X4.700 Y72.916 E-0.27336
G1 X5.803 Y72.474 E-0.27444
G1 X7.656 Y71.978 E-0.44299
;WIPE_END
G1 E-0.07000 F2100.000
G1 Z0.400 F10800.000
G1 X28.708 Y74.108
G1 Z0.200
G1 E1.40000 F2100.000
;TYPE:Perimeter
G1 F1200.000
G1 X29.119 Y74.034 E0.01310
G1 X42.620 Y70.416 E0.43826
G1 X43.094 Y70.350 E0.01499
G1 X43.586 Y70.386 E0.01547
G1 X44.052 Y70.530 E0.01530
G1 X44.475 Y70.774 E0.01530
G1 X44.832 Y71.106 E0.01530
G1 X45.107 Y71.510 E0.01532
G1 X45.432 Y72.340 E0.02795
G1 X45.664 Y72.680 E0.01290
G1 X45.963 Y72.957 E0.01279
G1 X46.316 Y73.161 E0.01279
G1 X46.706 Y73.281 E0.01279
G1 X47.130 Y73.313 E0.01332
G1 X47.541 Y73.239 E0.01310
G1 X57.148 Y70.665 E0.31184
G1 X57.541 Y70.524 E0.01310
G1 X57.892 Y70.284 E0.01332
G1 X58.169 Y69.985 E0.01279
G1 X58.373 Y69.632 E0.01279
G1 X58.494 Y69.242 E0.01279
G1 X58.524 Y68.832 E0.01290
G1 X58.391 Y67.951 E0.02795
G1 X58.427 Y67.463 E0.01532
G1 X58.571 Y66.997 E0.01530
G1 X58.815 Y66.575 E0.01530
G1 X59.147 Y66.217 E0.01530
G1 X59.554 Y65.939 E0.01547
G1 X59.998 Y65.760 E0.01499
G1 X73.499 Y62.142 E0.43826
G1 X73.892 Y62.001 E0.01310
G1 X74.243 Y61.762 E0.01332
G1 X74.521 Y61.463 E0.01279
G1 X74.725 Y61.109 E0.01279
G1 X74.845 Y60.720 E0.01279
G1 X74.876 Y60.309 E0.01290
G1 X74.742 Y59.428 E0.02795
G1 X74.778 Y58.941 E0.01532
G1 X74.922 Y58.475 E0.01530
G1 X75.166 Y58.052 E0.01530
G1 X75.498 Y57.695 E0.01530
G1 X75.906 Y57.417 E0.01547
G1 X76.349 Y57.238 E0.01499
G1 X93.745 Y52.576 E0.56468
G1 X94.219 Y52.510 E0.01499
G1 X94.711 Y52.547 E0.01547
G1 X95.177 Y52.690 E0.01530
G1 X95.599 Y52.934 E0.01530
G1 X95.957 Y53.266 E0.01529
G1 X96.235 Y53.674 E0.01547
G1 X96.414 Y54.117 E0.01499
G1 X99.126 Y64.238 E0.32852
G1 X99.267 Y64.631 E0.01310
G1 X99.506 Y64.982 E0.01332
G1 X99.805 Y65.260 E0.01279
G1 X100.159 Y65.463 E0.01279
G1 X100.548 Y65.584 E0.01279
G1 X100.965 Y65.615 E0.01311
G1 X102.114 Y65.424 E0.03650
G1 X107.550 Y64.328 E0.17388
G1 X113.051 Y63.540 E0.17425
G1 X118.589 Y63.066 E0.17425
G1 X124.144 Y62.908 E0.17425
G1 X129.699 Y63.066 E0.17425
G1 X135.237 Y63.540 E0.17425
G1 X140.738 Y64.328 E0.17425
G1 X146.174 Y65.424 E0.17388
G1 X147.322 Y65.615 E0.03650
G1 X147.739 Y65.584 E0.01311
G1 X148.129 Y65.464 E0.01279
G1 X148.483 Y65.260 E0.01279
G1 X148.781 Y64.982 E0.01279
G1 X149.021 Y64.631 E0.01332
G1 X149.162 Y64.238 E0.01310
G1 X151.874 Y54.117 E0.32852
G1 X152.053 Y53.674 E0.01499
G1 X152.331 Y53.266 E0.01547
G1 X152.688 Y52.934 E0.01530
G1 X153.111 Y52.690 E0.01530
G1 X153.577 Y52.547 E0.01530
G1 X154.069 Y52.510 E0.01547
G1 X154.541 Y52.576 E0.01495
G1 X171.939 Y57.238 E0.56472
G1 X172.382 Y57.417 E0.01499
G1 X172.790 Y57.695 E0.01547
G1 X173.122 Y58.052 E0.01529
G1 X173.365 Y58.475 E0.01530
G1 X173.509 Y58.941 E0.01530
G1 X173.546 Y59.428 E0.01532
G1 X173.412 Y60.310 E0.02795
G1 X173.443 Y60.720 E0.01290
G1 X173.563 Y61.109 E0.01279
G1 X173.767 Y61.463 E0.01279
G1 X174.044 Y61.762 E0.01279
G1 X174.395 Y62.001 E0.01332
G1 X174.789 Y62.142 E0.01310
G1 X188.290 Y65.760 E0.43826
G1 X188.734 Y65.939 E0.01500
G1 X189.141 Y66.217 E0.01547
G1 X189.473 Y66.575 E0.01529
G1 X189.717 Y66.997 E0.01530
G1 X189.861 Y67.463 E0.01530
G1 X189.897 Y67.951 E0.01532
G1 X189.763 Y68.832 E0.02795
G1 X189.794 Y69.242 E0.01290
G1 X189.914 Y69.632 E0.01279
G1 X190.118 Y69.985 E0.01279
G1 X190.396 Y70.284 E0.01279
G1 X190.747 Y70.523 E0.01332
G1 X191.140 Y70.665 E0.01310
G1 X200.747 Y73.239 E0.31184
G1 X201.158 Y73.313 E0.01310
G1 X201.582 Y73.281 E0.01332
G1 X201.972 Y73.161 E0.01279
G1 X202.325 Y72.957 E0.01279
G1 X202.624 Y72.680 E0.01279
G1 X202.856 Y72.340 E0.01290
G1 X203.180 Y71.510 E0.02795
G1 X203.456 Y71.106 E0.01532
G1 X203.813 Y70.774 E0.01530
G1 X204.236 Y70.530 E0.01530
G1 X204.702 Y70.386 E0.01529
G1 X205.194 Y70.350 E0.01547
G1 X205.667 Y70.416 E0.01499
G1 X219.169 Y74.034 E0.43826
G1 X219.580 Y74.108 E0.01310
G1 X220.004 Y74.076 E0.01332
G1 X220.393 Y73.956 E0.01279
G1 X220.747 Y73.752 E0.01279
G1 X221.046 Y73.475 E0.01279
G1 X221.277 Y73.135 E0.01290
G1 X221.602 Y72.305 E0.02795
G1 X221.878 Y71.901 E0.01532
G1 X222.235 Y71.569 E0.01529
G1 X222.658 Y71.325 E0.01530
G1 X223.124 Y71.181 E0.01530
G1 X223.616 Y71.145 E0.01547
G1 X224.089 Y71.211 E0.01499
G1 X241.485 Y75.873 E0.56468
G1 X241.929 Y76.052 E0.01500
G1 X242.336 Y76.329 E0.01547
G1 X242.668 Y76.687 E0.01530
G1 X242.912 Y77.110 E0.01530
G1 X243.056 Y77.576 E0.01530
G1 X243.093 Y78.068 E0.01547
G1 X243.026 Y78.541 E0.01500
G1 X223.871 Y150.029 E2.32052
G1 X223.692 Y150.473 E0.01499
G1 X223.414 Y150.880 E0.01547
G1 X223.056 Y151.212 E0.01529
G1 X222.634 Y151.456 E0.01530
G1 X222.168 Y151.600 E0.01530
G1 X221.676 Y151.637 E0.01547
G1 X221.202 Y151.570 E0.01499
G1 X207.701 Y147.952 E0.43826
G1 X207.290 Y147.878 E0.01310
G1 X206.866 Y147.910 E0.01332
G1 X206.476 Y148.030 E0.01279
G1 X206.123 Y148.234 E0.01279
G1 X205.824 Y148.511 E0.01279
G1 X205.592 Y148.851 E0.01290
G1 X205.267 Y149.681 E0.02795
G1 X204.992 Y150.085 E0.01532
G1 X204.635 Y150.417 E0.01530
G1 X204.212 Y150.661 E0.01530
G1 X203.746 Y150.805 E0.01530
G1 X203.254 Y150.842 E0.01547
G1 X202.780 Y150.775 E0.01499
G1 X189.279 Y147.157 E0.43826
G1 X188.868 Y147.083 E0.01310
G1 X188.444 Y147.115 E0.01332
G1 X188.054 Y147.235 E0.01279
G1 X187.701 Y147.439 E0.01279
G1 X187.402 Y147.716 E0.01279
G1 X187.170 Y148.056 E0.01290
G1 X186.846 Y148.886 E0.02795
G1 X186.570 Y149.290 E0.01532
G1 X186.213 Y149.622 E0.01530
G1 X185.790 Y149.866 E0.01529
G1 X185.324 Y150.010 E0.01530
G1 X184.832 Y150.047 E0.01547
G1 X184.358 Y149.980 E0.01499
G1 X166.962 Y145.318 E0.56468
G1 X166.519 Y145.140 E0.01499
G1 X166.111 Y144.862 E0.01547
G1 X165.779 Y144.504 E0.01530
G1 X165.536 Y144.082 E0.01529
G1 X165.392 Y143.615 E0.01530
G1 X165.355 Y143.128 E0.01532
G1 X165.489 Y142.247 E0.02795
G1 X165.458 Y141.837 E0.01290
G1 X165.338 Y141.447 E0.01279
G1 X165.134 Y141.093 E0.01279
G1 X164.857 Y140.794 E0.01279
G1 X164.506 Y140.555 E0.01332
G1 X164.112 Y140.414 E0.01310
G1 X150.611 Y136.796 E0.43826
G1 X150.168 Y136.617 E0.01499
G1 X149.760 Y136.339 E0.01547
G1 X149.428 Y135.982 E0.01530
G1 X149.184 Y135.559 E0.01530
G1 X149.040 Y135.093 E0.01530
G1 X149.004 Y134.606 E0.01532
G1 X149.138 Y133.724 E0.02795
G1 X149.107 Y133.314 E0.01289
G1 X148.987 Y132.924 E0.01279
G1 X148.783 Y132.571 E0.01279
G1 X148.505 Y132.272 E0.01279
G1 X148.142 Y132.024 E0.01378
G1 X147.202 Y131.717 E0.03102
G1 X142.180 Y130.420 E0.16263
G1 X137.093 Y129.443 E0.16239
G1 X131.955 Y128.789 E0.16239
G1 X126.787 Y128.459 E0.16239
G1 X121.607 Y128.456 E0.16239
G1 X116.438 Y128.779 E0.16239
G1 X111.300 Y129.427 E0.16239
G1 X106.212 Y130.397 E0.16239
G1 X101.195 Y131.686 E0.16242
G1 X100.134 Y132.032 E0.03498
G1 X99.782 Y132.272 E0.01336
G1 X99.505 Y132.571 E0.01279
G1 X99.301 Y132.924 E0.01279
G1 X99.181 Y133.314 E0.01279
G1 X99.150 Y133.724 E0.01290
G1 X99.284 Y134.606 E0.02795
G1 X99.247 Y135.093 E0.01532
G1 X99.104 Y135.559 E0.01530
G1 X98.860 Y135.982 E0.01530
G1 X98.528 Y136.339 E0.01530
G1 X98.120 Y136.617 E0.01547
G1 X97.677 Y136.796 E0.01499
G1 X84.175 Y140.414 E0.43826
G1 X83.782 Y140.555 E0.01310
G1 X83.431 Y140.794 E0.01332
G1 X83.154 Y141.093 E0.01279
G1 X82.950 Y141.447 E0.01279
G1 X82.829 Y141.836 E0.01279
G1 X82.799 Y142.247 E0.01290
G1 X82.932 Y143.128 E0.02795
G1 X82.896 Y143.615 E0.01532
G1 X82.752 Y144.082 E0.01530
G1 X82.508 Y144.504 E0.01530
G1 X82.176 Y144.862 E0.01530
G1 X81.769 Y145.140 E0.01547
G1 X81.325 Y145.318 E0.01500
G1 X63.929 Y149.980 E0.56468
G1 X63.456 Y150.047 E0.01499
G1 X62.964 Y150.010 E0.01547
G1 X62.498 Y149.866 E0.01530
G1 X62.075 Y149.622 E0.01530
G1 X61.718 Y149.290 E0.01530
G1 X61.442 Y148.886 E0.01532
G1 X61.117 Y148.056 E0.02795
G1 X60.886 Y147.716 E0.01290
G1 X60.587 Y147.439 E0.01279
G1 X60.234 Y147.235 E0.01279
G1 X59.844 Y147.115 E0.01279
G1 X59.420 Y147.083 E0.01332
G1 X59.009 Y147.157 E0.01310
G1 X45.507 Y150.775 E0.43826
G1 X45.034 Y150.842 E0.01499
G1 X44.542 Y150.805 E0.01547
G1 X44.076 Y150.661 E0.01530
G1 X43.653 Y150.417 E0.01530
G1 X43.296 Y150.085 E0.01530
G1 X43.020 Y149.681 E0.01532
G1 X42.696 Y148.851 E0.02795
G1 X42.464 Y148.511 E0.01290
G1 X42.165 Y148.234 E0.01279
G1 X41.812 Y148.030 E0.01279
G1 X41.422 Y147.910 E0.01279
G1 X40.998 Y147.878 E0.01332
G1 X40.587 Y147.952 E0.01310
G1 X27.085 Y151.570 E0.43826
G1 X26.612 Y151.637 E0.01499
G1 X26.120 Y151.600 E0.01547
G1 X25.654 Y151.456 E0.01530
G1 X25.231 Y151.212 E0.01530
G1 X24.874 Y150.880 E0.01530
G1 X24.596 Y150.473 E0.01547
G1 X24.417 Y150.029 E0.01499
G1 X5.262 Y78.541 E2.32052
G1 X5.195 Y78.068 E0.01499
G1 X5.232 Y77.576 E0.01547
G1 X5.376 Y77.110 E0.01530
G1 X5.620 Y76.687 E0.01530
G1 X5.951 Y76.329 E0.01530
G1 X6.359 Y76.052 E0.01547
G1 X6.802 Y75.873 E0.01499
G1 X24.198 Y71.211 E0.56468
G1 X24.672 Y71.145 E0.01499
G1 X25.164 Y71.181 E0.01547
G1 X25.630 Y71.325 E0.01530
G1 X26.053 Y71.569 E0.01529
G1 X26.410 Y71.901 E0.01530
G1 X26.686 Y72.305 E0.01532
G1 X27.010 Y73.135 E0.02795
G1 X27.242 Y73.475 E0.01290
G1 X27.541 Y73.752 E0.01279
G1 X27.894 Y73.956 E0.01279
G1 X28.284 Y74.076 E0.01279
G1 X28.648 Y74.104 E0.01144
G1 X28.676 Y73.728 F10800.000
G1 F1200.000
G1 X29.037 Y73.666 E0.01147
G1 X42.545 Y70.046 E0.43849
G1 X43.082 Y69.971 E0.01699
G1 X43.656 Y70.014 E0.01808
G1 X44.204 Y70.182 E0.01796
G1 X44.700 Y70.469 E0.01796
G1 X45.120 Y70.858 E0.01796
G1 X45.443 Y71.333 E0.01799
G1 X45.768 Y72.163 E0.02795
G1 X45.952 Y72.432 E0.01023
G1 X46.188 Y72.652 E0.01012
G1 X46.468 Y72.813 E0.01013
G1 X46.777 Y72.909 E0.01013
G1 X47.110 Y72.934 E0.01049
G1 X47.459 Y72.871 E0.01110
G1 X57.035 Y70.305 E0.31086
G1 X57.368 Y70.185 E0.01110
G1 X57.644 Y69.997 E0.01049
G1 X57.864 Y69.760 E0.01013
G1 X58.026 Y69.480 E0.01012
G1 X58.121 Y69.172 E0.01012
G1 X58.145 Y68.846 E0.01023
G1 X58.011 Y67.965 E0.02795
G1 X58.054 Y67.393 E0.01799
G1 X58.223 Y66.845 E0.01796
G1 X58.509 Y66.349 E0.01796
G1 X58.899 Y65.929 E0.01796
G1 X59.375 Y65.605 E0.01808
G1 X59.878 Y65.402 E0.01699
G1 X73.386 Y61.782 E0.43849
G1 X73.720 Y61.662 E0.01110
G1 X73.996 Y61.474 E0.01049
G1 X74.216 Y61.237 E0.01013
G1 X74.377 Y60.958 E0.01012
G1 X74.472 Y60.649 E0.01012
G1 X74.497 Y60.324 E0.01023
G1 X74.363 Y59.443 E0.02795
G1 X74.406 Y58.870 E0.01799
G1 X74.574 Y58.323 E0.01796
G1 X74.861 Y57.827 E0.01796
G1 X75.250 Y57.407 E0.01796
G1 X75.727 Y57.082 E0.01808
G1 X76.229 Y56.879 E0.01699
G1 X93.670 Y52.206 E0.56612
G1 X94.206 Y52.131 E0.01699
G1 X94.781 Y52.174 E0.01808
G1 X95.329 Y52.343 E0.01796
G1 X95.825 Y52.629 E0.01796
G1 X96.244 Y53.018 E0.01796
G1 X96.569 Y53.495 E0.01808
G1 X96.772 Y53.997 E0.01699
G1 X99.486 Y64.125 E0.32875
G1 X99.606 Y64.458 E0.01110
G1 X99.794 Y64.735 E0.01048
G1 X100.031 Y64.954 E0.01012
G1 X100.310 Y65.116 E0.01012
G1 X100.619 Y65.211 E0.01013
G1 X100.948 Y65.236 E0.01036
G1 X102.045 Y65.053 E0.03487
G1 X107.486 Y63.956 E0.17402
G1 X113.008 Y63.165 E0.17493
G1 X118.567 Y62.689 E0.17493
G1 X124.144 Y62.531 E0.17493
G1 X129.721 Y62.689 E0.17493
G1 X135.279 Y63.165 E0.17493
G1 X140.802 Y63.956 E0.17493
G1 X146.242 Y65.053 E0.17402
G1 X147.340 Y65.236 E0.03487
G1 X147.669 Y65.211 E0.01036
G1 X147.977 Y65.116 E0.01012
G1 X148.257 Y64.954 E0.01013
G1 X148.494 Y64.735 E0.01013
G1 X148.682 Y64.458 E0.01048
G1 X148.802 Y64.125 E0.01110
G1 X151.516 Y53.997 E0.32875
G1 X151.718 Y53.495 E0.01699
G1 X152.043 Y53.019 E0.01808
G1 X152.463 Y52.629 E0.01796
G1 X152.959 Y52.342 E0.01796
G1 X153.507 Y52.174 E0.01796
G1 X154.082 Y52.131 E0.01808
G1 X154.617 Y52.206 E0.01695
G1 X172.058 Y56.879 E0.56616
G1 X172.561 Y57.082 E0.01699
G1 X173.037 Y57.407 E0.01808
G1 X173.427 Y57.827 E0.01796
G1 X173.713 Y58.323 E0.01796
G1 X173.882 Y58.870 E0.01796
G1 X173.925 Y59.443 E0.01799
G1 X173.791 Y60.324 E0.02795
G1 X173.816 Y60.649 E0.01023
G1 X173.911 Y60.958 E0.01012
G1 X174.072 Y61.237 E0.01013
G1 X174.292 Y61.474 E0.01013
G1 X174.568 Y61.662 E0.01048
G1 X174.901 Y61.782 E0.01110
G1 X188.410 Y65.402 E0.43849
G1 X188.912 Y65.605 E0.01699
G1 X189.389 Y65.929 E0.01808
G1 X189.778 Y66.349 E0.01796
G1 X190.065 Y66.845 E0.01796
G1 X190.234 Y67.393 E0.01796
G1 X190.276 Y67.965 E0.01799
G1 X190.143 Y68.846 E0.02795
G1 X190.167 Y69.172 E0.01023
G1 X190.262 Y69.480 E0.01013
G1 X190.424 Y69.760 E0.01012
G1 X190.643 Y69.997 E0.01012
G1 X190.920 Y70.185 E0.01048
G1 X191.253 Y70.305 E0.01110
G1 X200.829 Y72.871 E0.31086
G1 X201.178 Y72.934 E0.01110
G1 X201.511 Y72.909 E0.01048
G1 X201.820 Y72.813 E0.01013
G1 X202.099 Y72.652 E0.01013
G1 X202.336 Y72.432 E0.01013
G1 X202.520 Y72.163 E0.01023
G1 X202.845 Y71.333 E0.02795
G1 X203.168 Y70.858 E0.01799
G1 X203.588 Y70.469 E0.01796
G1 X204.084 Y70.182 E0.01796
G1 X204.631 Y70.014 E0.01796
G1 X205.206 Y69.971 E0.01808
G1 X205.743 Y70.046 E0.01699
G1 X219.251 Y73.666 E0.43849
G1 X219.600 Y73.729 E0.01110
G1 X219.933 Y73.704 E0.01048
G1 X220.242 Y73.608 E0.01012
G1 X220.521 Y73.447 E0.01013
G1 X220.758 Y73.227 E0.01012
G1 X220.942 Y72.958 E0.01023
G1 X221.267 Y72.128 E0.02795
G1 X221.590 Y71.653 E0.01799
G1 X222.010 Y71.264 E0.01796
G1 X222.506 Y70.977 E0.01796
G1 X223.053 Y70.809 E0.01796
G1 X223.628 Y70.766 E0.01808
G1 X224.165 Y70.841 E0.01699
G1 X241.605 Y75.514 E0.56612
G1 X242.108 Y75.717 E0.01699
G1 X242.584 Y76.042 E0.01808
G1 X242.974 Y76.462 E0.01796
G1 X243.260 Y76.958 E0.01796
G1 X243.429 Y77.505 E0.01796
G1 X243.472 Y78.080 E0.01808
